X: 2
T: The Shaskeen
R: reel
M: 4/4
L: 1/8
K: G
DG~G2 ABcA|d2ed cA~Ad|B3G ~A3F|GBAG FGEF|
DG~G2 ABcA|d2ed cAA2|f2de fdcA|1AGFA ~G3E:|2AGFA ~G3B||
|:dggf g2fg|abag fddc|B3G A3F|GBAG FDD2|
|1dggf g2fg|abag fdde|f2eg fdcA|AGFA ~G3B:|
|2BG~G2 AF~F2|dBB2cAA2|f2eg fdcA|AGFA ~G3E|]
